X:1
T:[ID 7-19b]
T:[ID 7-19b]
T:Bezeichnung standardisiert: Menuett Menuet
T:Urheber unbekannt Datum in der hier transkribierten schriftlichen Quelle: 1776 - 1791
C:Urheber unbekannt
C:Datum in der hier transkribierten schriftlichen Quelle: 1776 - 1791
L:1/8
M:3/4
K:D
V:1 treble 
V:1
 DF A2 A2 | FA d2 d2 | Bgfedc | d4 z2 | (3fed f2 a2 | (3edc e2 a2 | (3dcB A2 ^G2 | A6 :: %8
 DF A2 =c2 | BGAF G2 | E^G B2 d2 | cABG A2"^1)" |: x6 | Ac e2 g2 | (3fed f2 a2 | (3bag f2 e2 | %16
 d6 :| %17

